img/svg/pinterest-hovered.svg

<svg width="28" height="28" viewBox="0 0 28 28" fill="none" xmlns="http://www.w3.org/2000/svg">
<path d="M14 0.666992C6.65699 0.693992 0.713989 6.65299 0.713989 14C0.713989 19.599 4.16599 24.393 9.05699 26.368L9.14599 26.4C9.01299 25.347 8.91899 23.733 9.18599 22.573L10.746 15.946C10.746 15.946 10.346 15.146 10.346 13.973C10.346 12.12 11.426 10.746 12.773 10.746C13.906 10.746 14.466 11.599 14.466 12.613C14.466 13.76 13.733 15.466 13.346 17.053C13.026 18.386 14.013 19.466 15.333 19.466C17.706 19.466 19.52 16.973 19.52 13.373C19.52 10.173 17.227 7.95999 13.947 7.95999C13.871 7.95599 13.783 7.95399 13.694 7.95399C10.505 7.95399 7.92099 10.539 7.92099 13.727C7.92099 13.729 7.92099 13.731 7.92099 13.733C7.92099 14.88 8.36099 16.106 8.90799 16.773C9.01499 16.906 9.02799 17.026 8.98799 17.16L8.61499 18.667C8.56199 18.907 8.41499 18.974 8.17499 18.854C6.49499 18.067 5.45499 15.654 5.45499 13.681C5.45499 9.48099 8.52199 5.62799 14.282 5.62799C18.895 5.62799 22.509 8.90799 22.509 13.321C22.509 17.921 19.602 21.614 15.576 21.614C14.243 21.614 12.963 20.907 12.536 20.081L11.696 23.241C11.265 24.578 10.704 25.739 10.008 26.804L10.042 26.748C11.212 27.12 12.558 27.335 13.953 27.335C21.317 27.335 27.286 21.365 27.286 14.002C27.286 6.65499 21.344 0.695992 14.004 0.668992H14.001L14 0.666992Z" fill="#E06733"/>
</svg>

<svg xmlns="http://www.w3.org/2000/svg" width="28" height="28" fill="none"><path fill="#E06733" d="M14 .667C6.657.694.714 6.653.714 14c0 5.599 3.452 10.393 8.343 12.368l.089.032c-.133-1.053-.227-2.667.04-3.827l1.56-6.627s-.4-.8-.4-1.973c0-1.853 1.08-3.227 2.427-3.227 1.133 0 1.693.853 1.693 1.867 0 1.147-.733 2.853-1.12 4.44-.32 1.333.667 2.413 1.987 2.413 2.373 0 4.187-2.493 4.187-6.093 0-3.2-2.293-5.413-5.573-5.413a5.773 5.773 0 0 0-6.026 5.767v.006c0 1.147.44 2.373.987 3.04.107.133.12.253.08.387l-.373 1.507c-.053.24-.2.307-.44.187-1.68-.787-2.72-3.2-2.72-5.173 0-4.2 3.067-8.053 8.827-8.053 4.613 0 8.227 3.28 8.227 7.693 0 4.6-2.907 8.293-6.933 8.293-1.333 0-2.613-.707-3.04-1.533l-.84 3.16a14.615 14.615 0 0 1-1.688 3.563l.034-.056c1.17.372 2.516.587 3.911.587 7.364 0 13.333-5.97 13.333-13.333 0-7.347-5.942-13.306-13.282-13.333h-.003L14 .667Z"/></svg>
